X:1
T:Only One Name
T:William Howard Doane
T:Only One Name
T:Public Domain
T:Public Domain
C:William Howard Doane
Z:Public Domain
%%score ( 1 2 ) ( 3 4 )
L:1/8
M:4/4
K:Ab
V:1 treble 
V:2 treble 
V:3 bass 
V:4 bass 
V:1
 [CA][DB] | [Ec][Ec] [Ec]2 [Ec]2 [EB][EA] | [FA]2 [DF]2 [CE]4 | [EA]2 [Ec]>[Ed] [Ee]2 [Ec]2 | %4
w: 1.~There is|on- ly one name that the|saints a- dore—|Je- sus, our eld- er|
w: 2.~There is|on- ly one name that the|soul need know—|Je- sus, the Lord’s a-|
w: 3.~There is|on- ly one name that the|an- gels sing—|Je- sus, the Lord of|
 [Ec]4 [EB]2 (AB) | [Ec][Ec] [Ec]>[Ec] [Ec]2 [EB][EA] | [FA]2 [DF]2 [CE]2 E2 | %7
w: bro- ther; They *|Him all the praise, now and ev-|er more; His name|
w: noint- ed; He *|fered to re- deem us from sin|and woe, And bear|
w: glo- ry; They *|ther at His feet while they hail|Him king, And list-|
 [DF][EG][EA][FB] [Ec]2 [EA]2 | [EB]4 [EA]2 |:"^Refrain" (cd) | [Ae]>[Ae] [Ae][Ac] [Ae]2 [Ec]2 | %11
w: o- ver ev- ery o- ther.|Then lift|the *|py strain, And sing the glad|
w: to the rest ap- point- ed.||||
w: to re- demp- tion’s sto- ry.|~ ~|~ *|~ ~ ~ ~ ~ ~|
 [FA]>[FA] [FA][DF] [FA]2 [EB]2 | [Ec]3 [Ed] [Ee]2 [Ec]2 | [Ec]4 [EB]2 :| [EB]4 [EA]2 |] %15
w: re- frain— The name, the name|of Je- sus; *|||
w: ||||
w: ~ ~ ~ ~ ~ ~|~ ~ ~ Je-|sus. *||
V:2
 x2 | x8 | x8 | x8 | x6 E2 | x8 | x6 E2 | x8 | x6 |: E2 | x8 | x8 | x8 | x6 :| x6 |] %15
w: ||||give||is|||hap-||||||
w: ||||suf-||us|||||||||
w: ||||ga-||en|||~||||||
V:3
 [A,,A,][A,,A,] | [A,,A,][A,,A,] [A,,A,]2 [A,,A,]2 [B,,G,][C,A,] | [D,A,]2 [D,A,]2 [A,,A,]4 | %3
 [A,,C]2 [A,,A,]>[A,,B,] [A,,C]2 [C,A,]2 | [E,G,]4 (E,D,)([C,A,][B,,A,]) | %5
 [A,,A,][A,,A,] [A,,A,]>[A,,A,] [A,,A,]2 [B,,G,][C,A,] | [D,D]2 [D,A,]2 [A,,A,]2 [C,A,]2 | %7
 [D,A,][D,B,][C,A,][D,A,] [E,A,]2 [E,C]2 | [E,D]4 [A,,C]2 |: (A,B,) | %10
 [A,C]>[A,C] [A,C][A,E] [A,C]2 [A,,A,]2 | [D,A,]>[D,D] [D,D][D,A,] [D,A,]2 [B,,G,]2 | %12
 [A,,A,]3 [B,,G,] [C,A,]2 [A,,A,]2 | [E,A,]4 [E,G,]2 :| G,2 D2 [A,,C]2 |] %15
V:4
 x2 | x8 | x8 | x8 | x4 G,2 x2 | x8 | x8 | x8 | x6 |: A,2 | x8 | x8 | x8 | x6 :| E,4 x2 |] %15

